X:375
T: Salamanca Reel
M: 4/4
L: 1/8
R: Reel
K: D
dB|AD(3FED AD(3FED|Adcd fedc|BE~E2 B,E~E2|Beed cdeg|
fB~B2 FB~B2|fgfe dfag|fgec dBAG|FGEF D2 :|
fg|afdg bgeg|fdcd BAFA|Addc defg|(3aba gb a2fg|
~a3f~g3e|~f3e dfag|fdec dBAG|FGEF D2 :|
